X:172
T:Karlsson.
S:Efter Anna Nilsdotter, Sallmans i Burs.
M:2/4
L:1/8
K:Bb
F|B> c B F|B> c B F|B c d B|
w:I fib-bar-va-ri säks-ti-ʃäu, da hals ran-sak-niŋg,
e2 d2|c3 B|A> c c c|f2 B> A|G3 F|=E F G A|
w:ke-rä däu, mä Kals-’n u fa-mil-jen, allt väl, u hai-lä dän ku-
B c d e|d2 c2|B2 z|]
w:dil-jen, er fö-star mi väl.